X: 1
T: Torf's Tune
T: Torf's "Choon"
R: strathspey
Z: 2011 John Chambers <jc:trillian.mit.edu>
M: C
L: 1/8
K: Am
AB \
| "Am"c>B c<e "Em/G"B>A B<e | "F"A>G A<c "Em"A>G E<G \
| "Am"A2 e2 "Dm"f>e d>c | "E"B2 e2 "E7"e>^G ||
A>B \
| "Am"c>B c<e "Em/G"B>A B<e | "F"A>G A<c "C"E2 "A7/C#"A>G \
| "Dm"F>E D>C "E7"(3B,CD E>D | "Am"C2 "Dm"A,2 "Am"A,2 |]
A>B \
| "Am"c<A a2 "Em"a>g e<g | "Am"a2 A2 "G"e>d c>B \
| "F"A>G "C"E<G "F"A>B "Dm"c>d | "E"e2 E2 "E7"E>^G ||
A>B \
| "Am"c>B A>G "Dm"F>c B<c | "E"B>e "E/G#"^d<e "Am"c>a "A7/C#"g<a \
| "Dm"(3fed "Am/E"e>A "E7"(3^GAB e>d | "Am"c2 "Dm"A2 "Am"A2 |]
